X: 307
%
U:~=!turn!
T: Lady Jemima Johnston
C:
O:Scotland
B:Keith Norman MacDonald : "The Skye collection of the best reels & strathspeys extant" : 1887
Z:Ralph Palmer
R:Strathspey
M:C
L:1/8
K:C
F | (E>F)G>F E<cG>c | E>Gc>E F<DD>F | E>FG>F E>cG>E | {DE}F<D {/G,}G>F E<CC>F | TE>FG>F E>cG>c |
E<cG>E {DE}F<DD>F | TE>FG>E {EF}G>A d>f | e<cG>B c<CC || (e/f/) | g>e{/B}c>e g>ag>e | f>d {/f}(ed/c/) B>dde/f/ |
g>e{/B}c>e g>ag>e | f>dg>G A>{/B}c ce/f/ | g>e{/B}(c>e g)>ag>e | f>d {/f}ed/c/ B<dd>f | e>g G>E F>d F>D | (B>c)d>f e<cc |]


